X: 119010
T: LORD LYNDOCH
Q: "Highland Schottische."
R: Schottische.
%R: shottish
B: James Kerr "Merry Melodies" v.1 p.19 s.0 #10
Z: 2017 John Chambers <jc:trillian.mit.edu>
M: C
L: 1/8
K: D
A |\
vd>veud>uB (A<F) D>uF | vG>vAuB>uA G>AB>c |\
d>ed>B (A<F) D>F | E>DE>F D2D :|\
ua |\
vf>vdua>ud f>da>d | c>Ae>A c>Ae>A |
f>da>d f>da>f | g>ba>g f<d d>a |\
(3(fed) a>d f>da>d | (3(cBA) e>A c>Ae>A |\
B<c c<e d<f e<g | f<b a>g f<d d |]

%%sep 1 1 500
%%sep 1 1 500

